icons/svg/16x16/folder/outline.svg

<svg xmlns="http://www.w3.org/2000/svg" width="16" height="16" viewBox="0 0 16 16">
  <path fill-rule="evenodd" d="M14.999919,5 L0.999919032,5 L0.999919032,2 C0.999919032,1.447 1.44691903,1 1.99991903,1 L4.76391903,1 C5.52091903,1 6.21391903,1.428 6.55291903,2.105 L6.99991903,3 L13.999919,3 C14.552919,3 14.999919,3.447 14.999919,4 L14.999919,5 Z M12.720919,12.439 C12.075919,12.667 10.201919,13 7.99991903,13 C5.79791903,13 3.92391903,12.667 3.27891903,12.439 C2.93991903,11.957 2.30291903,10.562 2.06691903,8 L13.932919,8 C13.696919,10.562 13.059919,11.957 12.720919,12.439 L12.720919,12.439 Z M14.996919,6 L1.00291903,6 C0.425919032,6 -0.0230809676,6.484 0.000919032416,7.059 C0.154919032,10.684 1.06891903,13.088 1.98291903,13.999 C2.48491903,14.499 5.24191903,15 7.99991903,15 C10.757919,15 13.514919,14.499 14.016919,13.999 C14.930919,13.088 15.844919,10.684 15.998919,7.059 C16.022919,6.484 15.573919,6 14.996919,6 L14.996919,6 Z"/>
</svg>

<svg width="16" height="16" fill="none" xmlns="http://www.w3.org/2000/svg">
  <path fill-rule="evenodd" clip-rule="evenodd" d="M15 5H1V2a1 1 0 011-1h3c.757 0 1.214.428 1.553 1.105L7 3h7a1 1 0 011 1v1zm-2.279 7.439C12.076 12.667 10.202 13 8 13s-4.076-.333-4.721-.561C2.94 11.957 2.067 10.596 2.067 8h11.866c0 2.607-.873 3.957-1.212 4.439zM15 6H1c-.577 0-1 .428-1 1 0 3.628 1.069 6.088 1.983 6.999C2.485 14.499 5.242 15 8 15c2.758 0 5.515-.501 6.017-1.001C14.931 13.088 16 10.628 16 7c0-.574-.423-1-1-1z" fill="#000"/>
</svg>
